Newaita-dark/actions/24/run-build.svg

<svg height="24" viewBox="0 0 24 24" width="24" xmlns="http://www.w3.org/2000/svg"><g fill="#e0e0e0"><path d="m11.90625 4.15625c-4.398438 0-7.9375 3.539062-7.9375 7.9375s3.539062 7.9375 7.9375 7.9375 7.9375-3.539062 7.9375-7.9375-3.539062-7.9375-7.9375-7.9375zm0 1.984375c3.300781 0 5.953125 2.65625 5.953125 5.953125 0 3.300781-2.652344 5.953125-5.953125 5.953125-3.296875 0-5.953125-2.652344-5.953125-5.953125 0-3.296875 2.65625-5.953125 5.953125-5.953125zm0 0"/><path d="m10.914062 2.152344c-.25 0-.464843.183594-.507812.429687l-.472656 2.847657c.347656-.101563.710937-.175782 1.082031-.222657l.335937-2.023437h1.113282l.335937 2.023437c.371094.046875.730469.121094 1.082031.222657l-.476562-2.847657c-.039062-.246093-.253906-.429687-.507812-.429687zm6.949219 2.0625c-.105469 0-.207031.035156-.289062.09375l-2.347657 1.675781c.324219.179687.632813.378906.925782.605469l1.664062-1.191406.785156.789062-1.1875 1.664062c.222657.289063.425782.601563.601563.925782l1.679687-2.347656c.144532-.203126.121094-.484376-.054687-.664063l-1.40625-1.402344c-.097656-.097656-.230469-.152343-.371094-.148437zm-11.910156 0c-.140625-.003906-.273437.050781-.375.148437l-1.402344 1.402344c-.175781.179687-.199219.460937-.054687.664063l1.675781 2.347656c.175781-.324219.378906-.636719.605469-.925782l-1.191406-1.664062.789062-.789062 1.664062 1.191406c.289063-.226563.601563-.425782.925782-.605469l-2.347656-1.675781c-.085938-.058594-.183594-.09375-.289063-.09375zm-.710937 5.90625-2.847657.472656c-.246093.042969-.429687.257812-.429687.507812v1.984376c0 .253906.183594.46875.429687.507812l2.847657.476562c-.101563-.351562-.175782-.710937-.222657-1.082031l-2.023437-.335937v-1.113282l2.023437-.335937c.046875-.371094.121094-.734375.222657-1.082031zm13.328124 0c.101563.347656.179688.710937.226563 1.082031l2.023437.335937v1.113282l-2.023437.335937c-.046875.371094-.125.730469-.226563 1.082031l2.847657-.476562c.25-.039062.429687-.253906.429687-.507812v-1.984376c0-.25-.179687-.464843-.429687-.507812zm-.554687 5.292968c-.175781.324219-.378906.632813-.601563.925782l1.1875 1.664062-.785156.785156-1.664062-1.1875c-.292969.222657-.601563.425782-.925782.601563l2.347657 1.679687c.203125.144532.484375.121094.660156-.054687l1.40625-1.40625c.175781-.175781.199219-.457031.054687-.660156zm-12.21875 0-1.675781 2.347657c-.144532.203125-.121094.484375.054687.660156l1.402344 1.40625c.179687.175781.460937.199219.664063.054687l2.347656-1.679687c-.324219-.175781-.636719-.378906-.925782-.601563l-1.664062 1.1875-.789062-.785156 1.191406-1.664062c-.226563-.292969-.425782-.601563-.605469-.925782zm4.136719 3.34375.472656 2.847657c.042969.25.257812.429687.507812.429687h1.984376c.253906 0 .46875-.179687.507812-.429687l.476562-2.847657c-.351562.101563-.710937.179688-1.082031.226563l-.335937 2.023437h-1.113282l-.335937-2.023437c-.371094-.046875-.734375-.125-1.082031-.226563zm0 0"/><path d="m9.921875 8.621094c-.292969-.011719-.535156.222656-.535156.515625v5.953125c0 .398437.4375.648437.78125.441406l4.960937-2.976562c.332032-.199219.332032-.683594 0-.882813l-4.960937-2.976563c-.074219-.042968-.160157-.070312-.246094-.074218zm0 0"/></g></svg>

<svg xmlns="http://www.w3.org/2000/svg" xmlns:xlink="http://www.w3.org/1999/xlink" width="24px" height="24px" viewBox="0 0 24 24" version="1.1">
<g id="surface1">
     <defs>
  <style id="current-color-scheme" type="text/css">
   .ColorScheme-Text { color:#eeeeee; } .ColorScheme-Highlight { color:#424242; }
  </style>
 </defs>
<path style="fill:currentColor" class="ColorScheme-Text" d="M 11.90625 4.15625 C 7.507812 4.15625 3.96875 7.695312 3.96875 12.09375 C 3.96875 16.492188 7.507812 20.03125 11.90625 20.03125 C 16.304688 20.03125 19.84375 16.492188 19.84375 12.09375 C 19.84375 7.695312 16.304688 4.15625 11.90625 4.15625 Z M 11.90625 6.140625 C 15.207031 6.140625 17.859375 8.796875 17.859375 12.09375 C 17.859375 15.394531 15.207031 18.046875 11.90625 18.046875 C 8.609375 18.046875 5.953125 15.394531 5.953125 12.09375 C 5.953125 8.796875 8.609375 6.140625 11.90625 6.140625 Z M 11.90625 6.140625 "/>
     <defs>
  <style id="current-color-scheme" type="text/css">
   .ColorScheme-Text { color:#eeeeee; } .ColorScheme-Highlight { color:#424242; }
  </style>
 </defs>
<path style="fill:currentColor" class="ColorScheme-Text" d="M 10.914062 2.152344 C 10.664062 2.152344 10.449219 2.335938 10.40625 2.582031 L 9.933594 5.429688 C 10.28125 5.328125 10.644531 5.253906 11.015625 5.207031 L 11.351562 3.183594 L 12.464844 3.183594 L 12.800781 5.207031 C 13.171875 5.253906 13.53125 5.328125 13.882812 5.429688 L 13.40625 2.582031 C 13.367188 2.335938 13.152344 2.152344 12.898438 2.152344 Z M 17.863281 4.214844 C 17.757812 4.214844 17.65625 4.25 17.574219 4.308594 L 15.226562 5.984375 C 15.550781 6.164062 15.859375 6.363281 16.152344 6.589844 L 17.816406 5.398438 L 18.601562 6.1875 L 17.414062 7.851562 C 17.636719 8.140625 17.839844 8.453125 18.015625 8.777344 L 19.695312 6.429688 C 19.839844 6.226562 19.816406 5.945312 19.640625 5.765625 L 18.234375 4.363281 C 18.136719 4.265625 18.003906 4.210938 17.863281 4.214844 Z M 5.953125 4.214844 C 5.8125 4.210938 5.679688 4.265625 5.578125 4.363281 L 4.175781 5.765625 C 4 5.945312 3.976562 6.226562 4.121094 6.429688 L 5.796875 8.777344 C 5.972656 8.453125 6.175781 8.140625 6.402344 7.851562 L 5.210938 6.1875 L 6 5.398438 L 7.664062 6.589844 C 7.953125 6.363281 8.265625 6.164062 8.589844 5.984375 L 6.242188 4.308594 C 6.15625 4.25 6.058594 4.214844 5.953125 4.214844 Z M 5.242188 10.121094 L 2.394531 10.59375 C 2.148438 10.636719 1.964844 10.851562 1.964844 11.101562 L 1.964844 13.085938 C 1.964844 13.339844 2.148438 13.554688 2.394531 13.59375 L 5.242188 14.070312 C 5.140625 13.71875 5.066406 13.359375 5.019531 12.988281 L 2.996094 12.652344 L 2.996094 11.539062 L 5.019531 11.203125 C 5.066406 10.832031 5.140625 10.46875 5.242188 10.121094 Z M 18.570312 10.121094 C 18.671875 10.46875 18.75 10.832031 18.796875 11.203125 L 20.820312 11.539062 L 20.820312 12.652344 L 18.796875 12.988281 C 18.75 13.359375 18.671875 13.71875 18.570312 14.070312 L 21.417969 13.59375 C 21.667969 13.554688 21.847656 13.339844 21.847656 13.085938 L 21.847656 11.101562 C 21.847656 10.851562 21.667969 10.636719 21.417969 10.59375 Z M 18.015625 15.414062 C 17.839844 15.738281 17.636719 16.046875 17.414062 16.339844 L 18.601562 18.003906 L 17.816406 18.789062 L 16.152344 17.601562 C 15.859375 17.824219 15.550781 18.027344 15.226562 18.203125 L 17.574219 19.882812 C 17.777344 20.027344 18.058594 20.003906 18.234375 19.828125 L 19.640625 18.421875 C 19.816406 18.246094 19.839844 17.964844 19.695312 17.761719 Z M 5.796875 15.414062 L 4.121094 17.761719 C 3.976562 17.964844 4 18.246094 4.175781 18.421875 L 5.578125 19.828125 C 5.757812 20.003906 6.039062 20.027344 6.242188 19.882812 L 8.589844 18.203125 C 8.265625 18.027344 7.953125 17.824219 7.664062 17.601562 L 6 18.789062 L 5.210938 18.003906 L 6.402344 16.339844 C 6.175781 16.046875 5.976562 15.738281 5.796875 15.414062 Z M 9.933594 18.757812 L 10.40625 21.605469 C 10.449219 21.855469 10.664062 22.035156 10.914062 22.035156 L 12.898438 22.035156 C 13.152344 22.035156 13.367188 21.855469 13.40625 21.605469 L 13.882812 18.757812 C 13.53125 18.859375 13.171875 18.9375 12.800781 18.984375 L 12.464844 21.007812 L 11.351562 21.007812 L 11.015625 18.984375 C 10.644531 18.9375 10.28125 18.859375 9.933594 18.757812 Z M 9.933594 18.757812 "/>
     <defs>
  <style id="current-color-scheme" type="text/css">
   .ColorScheme-Text { color:#eeeeee; } .ColorScheme-Highlight { color:#424242; }
  </style>
 </defs>
<path style="fill:currentColor" class="ColorScheme-Text" d="M 9.921875 8.621094 C 9.628906 8.609375 9.386719 8.84375 9.386719 9.136719 L 9.386719 15.089844 C 9.386719 15.488281 9.824219 15.738281 10.167969 15.53125 L 15.128906 12.554688 C 15.460938 12.355469 15.460938 11.871094 15.128906 11.671875 L 10.167969 8.695312 C 10.09375 8.652344 10.007812 8.625 9.921875 8.621094 Z M 9.921875 8.621094 "/>
</g>
</svg>
